X:1
T:4. Domine
T: Johan August Söderman (1832 - 1876)
T:Andeliga Sånger (1872)
T:4. Domine
T:Coro
C:Johan August Söderman
C:(1832 - 1876)
%%score [ ( 1 2 ) ( 3 4 ) ( 5 6 ) ( 7 8 ) ]
L:1/8
Q:1/4=92
M:4/4
K:C#min
V:1 treble nm="Soprano" snm="S"
V:2 treble 
V:3 treble nm="Alto" snm="A"
V:4 treble 
V:5 treble-8 nm="Tenore" snm="T"
V:6 treble-8 
V:7 bass nm="Basso" snm="B"
V:8 bass 
V:1
"^Andante" z8 | z8 |!pp! E3 E E3 z | E2 E2 E2 E2 | C8 | C6 ^B,2 | C6 z2 | E3 E E3 z | %8
w: ||Do- mi- ne|Je- su Chris- te|Rex|glo- ri-|ae,|Do- mi- ne|
!<(! E2 E2 G2 G2!<)! |!mf! B8 |!>(! B6 A2!>)! | G6 z2 |!p! G3 G G3 z | F2 F2 E2 E2 |"^dim." E6 D2 | %15
w: Je- su Chris- te|Rex|glo- ri-|ae|Do- mi- ne,-|Do- mi- ne Rex|glo- ri-|
!pp! C6 z2 |!f!"^marc." c3 c c4- | c8 | c3 c c4- |"^molto cresc."!<(! c8!<)! |!ff!!<(! c6 c2!<)! | %21
w: ae|Sal- va nos,|_|Sal- va nos|_|Sal- va|
 c6 z2 |!fff!"^marc." g3 g g3 z | g3 g g3 z |!pp! F2 F2 E2 E2 | D3 D D3 z | %26
w: nos|Do- mi- ne,|Do- mi- ne,|Do- mi- ne Rex|glo- ri- ae,|
!fff!"^marc." g3 g g3 z | g3 g g3 z |!p! C8- | C3 C C3 z | C8- | C8 | ^B,8 |!<(! C4!<)! C4 | %34
w: Do- mi- ne,|Do- mi- ne,|Do-|* mi- ne|Do-||mi-|ne Rex|
!>(! C4!>)! C4 | C6 z2 | z8 | !fermata!z8 |] %38
w: glo- ri-|ae.|||
V:2
 x8 | x8 | x8 | x8 | x8 | x8 | x8 | x8 | x8 | G8 | G4 F2 A2 | x8 | E3 E E3 z | x8 | x8 | x8 | x8 | %17
 x8 | x8 | x8 | x8 | x8 | x8 | x8 | x8 | x8 | x8 | x8 | x8 | x8 | x8 | x8 | x8 | x8 | x8 | x8 | %36
 x8 | x8 |] %38
V:3
 z8 | z8 |!pp! C3 C C3 z | C2 C2 C2 C2 | A,8 | A,4 G,4 | G,6 z2 | C3 C C3 z |!<(! C2 C2 E2!<)! E2 | %9
w: ||Do- mi- ne|Je- su Chris- te|Rex|glo- ri-|ae,|Do- mi- ne|Je- su Chris- te|
!mf! E8 |!>(! D6!>)! D2 | E6 z2 |!p! C3 C C3 z | D2 D2 C2 C2 |"^dim." ^B,6 B,2 |!pp! C6 z2 | %16
w: Rex|glo- ri-|ae|Do- mi- ne,|Do- mi- ne Rex|glo- ri-|ae|
!f!"^marc." C3 C C4- | C8 | C3 C C4- |"^molto cresc."!<(! C8!<)! |!ff!!<(! C6 C2!<)! | C6 z2 | %22
w: Sal- va nos,|_|Sal- va nos|_|Sal- va|nos|
!fff!"^marc." G3 G G3 z | G3 G G3 z |!pp! C2 C2 C2 C2 | D3 D D3 z |!fff!"^marc." G3 G G3 z | %27
w: Do- mi- ne,|Do- mi- ne,|Do- mi- ne Rex|glo- ri- ae,|Do- mi- ne,|
 G3 G G3 z | z8 |!p! !>!A,3 A, A,3 z | G,2 G,2 G,2 G,2 | G,8 | G,8 |!<(! G,4!<)! B,4 | %34
w: Do- mi- ne,||Do- mi- ne|Je- su Chris- te|Do-|mi-|ne Rex|
!>(! ^A,4!>)! =A,4 | G,6 z2 | z8 | !fermata!z8 |] %38
w: glo- ri-|ae.|||
V:4
 x8 | x8 | x8 | x8 | x8 | x8 | x8 | x8 | C2 C2 C2 C2 | C8 | B,6 B,2 | B,6 z2 | x8 | x8 | x8 | x8 | %16
 x8 | x8 | x8 | x8 | x8 | x8 | x8 | x8 | x8 | x8 | x8 | x8 | x8 | x8 | x8 | x8 | x8 | x8 | x8 | %35
 x8 | x8 | x8 |] %38
V:5
 z8 | z8 |!pp! G3 G G3 z | G2 G2 G2 G2 | F8 | F4 F4 | E6 z2 | G3 G G3 z |!<(! G2 G2 G2!<)! G2 | %9
w: ||Do- mi- ne|Je- su Chris- te|Rex|glo- ri-|ae,|Do- mi- ne|Je- su Chris- te|
!mf! A8 |!>(! A6!>)! F2 | E6 z2 |!p! A3 A A3 z | A2 A2 A2 A2 |"^dim." F6 F2 |!pp! E6 z2 | z8 | %17
w: Rex|glo- ri-|ae|Do- mi- ne,|Do- mi- ne Rex|glo- ri-|ae||
!f!"^marc." d2 d2 ^e2 e2 | f3 z z4 |"^molto cresc."!<(! ^e2 e2 f2 f2!<)! |!ff!!<(! =g6 g2!<)! | %21
w: Je- su Chris- te|Rex,|Je- su Chris- te|Sal- va|
 =g6 z2 |!fff!"^marc." g3 g g3 z | g3 g g3 z |!pp! A2 A2 G2 G2 | A3 A A3 z | %26
w: nos|Do- mi- ne,|Do- mi- ne,|Do- mi- ne Rex|glo- ri- ae,|
!fff!"^marc." g3 g g3 z | g3 g g3 z |!p! G2 G2 =G2 G2 | F3 F F3 z | ^E2 E2 =E2 E2 | D8- | D4 F4 | %33
w: Do- mi- ne,|Do- mi- ne,|Je- su Chris- te|Do- mi- ne|Je- su Chris- te|Do-|* mi-|
!<(! E4!<)! ^E4 |!>(! F4!>)! F4 | E6 z2 | z8 | !fermata!z8 |] %38
w: ne Rex|glo- ri-|ae.|||
V:6
 x8 | x8 | x8 | x8 | x8 | x8 | x8 | E3 E E3 z | E2 E2 E2 E2 | E8 | x8 | x8 | F3 F F3 z | %13
 F2 F2 F2 F2 | x8 | x8 | x8 | c2 c2 c2 c2 | c3 z z4 | c2 c2 f2 f2 | e6 e2 | e6 z2 | x8 | x8 | x8 | %25
 F3 F F3 z | x8 | x8 | E2 E2 D2 D2 | x8 | x8 | x8 | x8 | x8 | x8 | x8 | x8 | x8 |] %38
V:7
 z8 | z8 |!pp! C,3 C, C,3 z | C,2 C,2 C,2 C,2 | F,,8 | G,,4 G,,4 | C,6 z2 | B,,3 B,, B,,3 z | %8
w: ||Do- mi- ne|Je- su Chris- te|Rex|glo- ri-|ae,|Do- mi- ne|
!<(! B,,2 B,,2 B,,2!<)! B,,2 |!mf! A,,8 |!>(! B,,6!>)! B,,2 | E,6 z2 |!p! F,,3 F,, F,,3 z | %13
w: Je- su Chris- te|Rex|glo- ri-|ae|Do- mi- ne,|
 F,,2 F,,2 F,,2 F,,2 |"^dim." G,,6 G,,2 |!pp! A,,6 z2 | z8 |!f!"^marc." A,2 A,2 B,2 B,2 | %18
w: Do- mi- ne Rex|glo- ri-|ae||Je- su Chris- te|
 A,3 z z4 |"^molto cresc."!<(! B,2 B,2 C2 C2!<)! |!ff! C6!<(! C2!<)! | C6 z2 | %22
w: Rex,|Je- su Chris- te|Sal- va|nos|
!fff!"^marc." G,3 G, G,3 z | G,3 G, G,3 z |!pp! G,,2 G,,2 G,,2 G,,2 | G,,3 G,, G,,3 z | %26
w: Do- mi- ne,|Do- mi- ne,|Do- mi- ne Rex|glo- ri- ae,|
!fff!"^marc." G,3 G, G,3 z | G,3 G, G,3 z |!p! G,,2 G,,2 G,,2 G,,2 | G,,3 G,, G,,3 z | G,,8- | %31
w: Do- mi- ne,|Do- mi- ne,|Je- su Chris- te|Do- mi- ne|Do-|
 G,,8 | G,,8 |!<(! C,4!<)! C,4 |!>(! C,3 C,!>)! C,4- | C,6 z2 | z8 | !fermata!z8 |] %38
w: |mi-|ne Rex|glo- ri- ae.|_|||
V:8
 x8 | x8 | x8 | x8 | x8 | x8 | x8 | x8 | x8 | x8 | x8 | x8 | x8 | x8 | x8 | x8 | x8 | %17
w: |||||||||||||||||
 F,2 F,2 G,2 G,2 | x8 | G,2 G,2 A,2 A,2 | ^A,6 A,2 | ^A,6 z2 | x8 | x8 | x8 | x8 | x8 | x8 | x8 | %29
w: Je- su Chris- te||||||||||||
 x8 | x8 | x8 | x8 | x8 | x8 | x8 | x8 | x8 |] %38
w: |||||||||

